X: 31238
T: Paddy Fahey's
R: reel
M: 4/4
K: Gdorian
Bc/B/ Ac BGGB|A2 FF cFAc|Bc/B/ Ac Bdga|fdcd adAc|
Bc/B/ Ac BGGB|A2 FF cFAc|Bc/B/ Ac Bdga|fdcA G3a||
b2gb agfa|gfdc AG ~G2|B/c/d gb agfa|gfdc dgg^f|
g2 bg afde|f3g {fg}fdcA|B2 Ac Bdga|fdcd adAc||

